
1:TN0@1
1:L4RV14Q7O5DL2C+
1:O4L4.BL2A&L8A
1:L4RO5DL2C+
1:O4L4BL8RO5C+RL4.E
1:L4RDL2C+
1:O4L4BL8RO5C+RL4.D
1:L2C+L4.DL8E&
1:V13L2ER
1:V14DL8RDEF+
1:L4GF+ED
1:L2.C+O4L8AF+&
1:L1F+
1:L2GL8RABO5D
1:L4GF+ED
1:L2C+D
1:L1E
1:O4L2BO5L4C+D
1:L2C+L4DE
1:L2F+E
1:L1D
1:L2G&L8GF+ED
1:L4C+DEC+
1:L1D&
1:L4DL2.R
1:L2BL8RL4.D
1:L4C+L8BA&AGF+G
1:L2AL8RF+ED&
1:L1D
1:L2GO4B
1:O5L4C+DEG
1:L2F+G
1:L2.AL4R
1:L2BL8RL4.D
1:L4C+L8BA&AGF+G
1:L2F+G+
1:L1A
1:L4GL8F+E&EDEF+
1:L4GDGB
1:L4.BL8AL2A&
1:L1A
1:L4RAL8AGF+G
1:L4.AL2D&L8D
1:O4L4BO5L8DL4.GL4D
1:C+DEG
1:RAL8AGF+G
1:L4.AL2D&L8D
1:GF+ED&DDEF+
1:L2E&L8ERO4L4A

2:T122N0@2
2:V14Q7O3L8DDDDDDDD
2:DDDDDO2AO3C+E
2:DDDDDDDD
2:O2GGGGAABO3C+
2:DDDDDDDD
2:O2GO3GO2GO3GO2GO3GO2GO3G
2:O2AAO3AO2AO3BO2BBO3C+&
2:C+C+L4C+L2R
2:L8DDDDDDDD
2:DDDDDDDD
2:O2F+F+F+F+F+F+F+F+
2:F+F+F+F+F+GAF+
2:GGGGGGGG
2:GGAABBO3DD
2:O2AAAABBBB
2:O3C+C+DDEDC+E
2:O2GGGGGGGG
2:AAAABBO3C+C+
2:DDDDC+C+C+C+
2:O2BBBBBO3C+DF+
2:GO2GGO3GO2GABO3D
2:O2AABBO3C+C+EE
2:DDDDDO2AO3C+E
2:DDL4RL2R
2:O2L8GGGGGGGG
2:AAAAAABO3C+
2:DDDDDDC+C+
2:O2BBBBBBBB
2:GGGGGGGG
2:AABBO3CCC+C+
2:DDDDO2BBBB
2:AABBO3C+C+DF+
2:O2GGGGGGGG
2:AAAAAABO3C+
2:O2BBBBG+G+AB
2:F+F+F+F+GABA
2:BBBBBBBB
2:GGG+G+ABO3C+O2A
2:GGAABBGG
2:AABBO3C+C+EE
2:DDDDDDDD
2:O2BBBBBBBB
2:GGGGGGG+G+
2:AABBO3C+C+EE
2:DDDDDDDD
2:O2BBBBBBO3C+D
2:O2GGAABBO3DD
2:C+C+O2AABBO3C+C+

3:T122N0@3
3:L4RV14Q7O3DRD
3:RDL8RO2BRO3C+
3:L4RDRD
3:RO2BL8RO3C+RC+
3:L4RDRD
3:RO2GRO3D
3:RC+L8RDRE
3:REEEL4RL16EEEE
3:L4RDRD
3:RDRD
3:RO2F+RF+
3:RF+RF+
3:RGRG
3:RGL8RARB
3:L4RARA
3:RARL16AAAA
3:L4RGRG
3:RARA
3:L8RBBBRAAA
3:L4RGL8RBRB
3:L4RBRB
3:RO3C+RC+
3:RDL8RDRD
3:L16DDDRL2RL16DDDD
3:L4RO2GRG
3:RARA
3:RARA
3:RBL8RBRA
3:L4RGRG
3:RARA
3:RO3DRC+
3:RDL16RDDDRC+C+C+
3:L4RO2GRG
3:RARA
3:L8RBBRRO3DDR
3:L4RC+RL16C+C+C+C+
3:L4RO2GRG
3:L8GRGRARBR
3:L4RARA
3:L8RO3C+RC+L16C+C+C+RC+C+C+R
3:L4RDRD
3:RO2BL8RBRB
3:L4RGRG+
3:RAL8RAL16AABO3C+
3:L4RDRD
3:RO2BRB
3:L8RGRGRGGG+
3:L4RARL16AAAA

4:T122N0@1
4:V10Q7O4L16DAO5DO4ADAO5DO4ADAO5DO4ADAO5DO4A
4:DAO5DO4ADAO5DO4AO3BO4GBGC+EAO5C+
4:O4DAO5DO4ADAO5DO4ADAO5DO4ADAO5DO4A
4:O3BO4GBGO3BO4GBGC+GO5C+O4GO5C+O4AO5C+E
4:O4DAO5DO4ADAO5DO4ADAO5DO4ADAO5DO4A
4:O3BO4GBGO3BO4GBGO3BO4GBGBGBO5D
4:C+O4AEAO5C+O4AEAO5C+O4AEAO5C+O4AEA
4:O5EO4AO5C+O4AO5EO4AO5C+O4AO5EO4AO5C+DEO4BGE
4:DAO5DO4ADAO5DO4ADAO5DO4ADAO5DO4A
4:DAO5DO4ADAO5DO4ADAO5DO4AO5DO4AF+D
4:C+AO5C+O4AC+AO5C+O4AC+AO5C+O4AC+AO5C+O4A
4:C+AO5C+O4AC+AO5C+O4AC+F+AO5C+F+C+O4AF+
4:DGBGDGBGDGBGDGBG
4:DGBGDGBGDGBO5DGDO4BG
4:EAO5C+O4AEAO5C+O4AEAO5C+O4AEAO5C+O4A
4:C+EAO5C+O4AO5C+EAO6C+O5AEC+C+O4AEC+
4:O3BO4GBGO3BO4GBGO3BO4GBGO3BO4GBG
4:C+AO5C+O4AC+AO5C+O4AC+AO5C+O4AC+AO5C+O4A
4:DAO5DO4ADAO5DO4AC+F+AO5C+F+C+O4AF+
4:O3BO4F+BF+O3BO4F+BF+O3BO4F+BF+O3BO4C+DF+
4:DGBGDGBGDGBGO5DO4BGD
4:O3AO4AO5C+O4AO3AO4AO5C+O4AO3AO4AO5C+O4AC+DEA
4:DAO5DO4ADAO5DO4ADAO5DO4AC+EAO5C+
4:DO4AF+AO5DO4AF+DF+DO3BF+O4DO3BO4DF+
4:BGDGBGDGBGDGBGDG
4:AEC+EAEC+EAEC+EAEC+A
4:AF+DF+AF+DF+AF+DF+AF+DF+
4:AF+DF+O3ABO4C+F+AF+DF+F+DEF+
4:BGDGBGDGBGDGBGDG
4:O5C+O4AEAO5C+O4AEAO5C+O4AEAO5C+O4ABO5C+
4:DO4AF+AO5DO4AO5DF+EO4AO5C+EEO4AO5C+E
4:F+O4F+AO5DO4DF+AO5DF+DO4AF+AF+GA
4:BGDGBGDGBGDGBGDG
4:AEC+EAEC+EAEC+EAEF+A
4:BF+DF+BF+DF+BF+DF+DF+AB
4:AF+DF+AF+DF+AF+DF+AF+GA
4:BGDGBGDGBGDGBGDG
4:BG+EG+BG+EG+BG+EG+BG+BO5D
4:C+O4AEAO5C+O4AEAO5C+O4AEAO5C+O4AEA
4:O5C+O4AEAO5C+O4AEAO3ABO4C+EABO5C+A
4:O4DAO5DO4ADAO5DO4ADAO5DO4ADAO5DO4A
4:O3BO4F+BF+O3BO4F+BF+O3BO4F+BF+O3BO4F+BF+
4:O3GO4DGDO3GO4DGDO3GO4DGDO3G+O4DG+D
4:O3AO4EAEO3AO4EAEO3AO4EAEO3ABO4C+A
4:DAO5DO4ADAO5DO4ADAO5DO4ADAO5DO4A
4:O3BO4F+BF+O3BO4F+BF+O3BO4F+BF+O3BO4F+BF+
4:O3GO4DGDO3GO4DGDO3GO4DGDO3G+O4DG+D
4:O3AO4EAEO3AO4EAEO3AO4EAEO3AO4EAO5C+

5:T122N100@1
5:V10Q7O4L16DAO5DO4ADAO5DO4ADAO5DO4ADAO5DO4A
5:DAO5DO4ADAO5DO4AO3BO4GBGC+EAO5C+
5:O4DAO5DO4ADAO5DO4ADAO5DO4ADAO5DO4A
5:O3BO4GBGO3BO4GBGC+GO5C+O4GO5C+O4AO5C+E
5:O4DAO5DO4ADAO5DO4ADAO5DO4ADAO5DO4A
5:O3BO4GBGO3BO4GBGO3BO4GBGBGBO5D
5:C+O4AEAO5C+O4AEAO5C+O4AEAO5C+O4AEA
5:O5EO4AO5C+O4AO5EO4AO5C+O4AO5EO4AO5C+DEO4BGE
5:DAO5DO4ADAO5DO4ADAO5DO4ADAO5DO4A
5:DAO5DO4ADAO5DO4ADAO5DO4AO5DO4AF+D
5:C+AO5C+O4AC+AO5C+O4AC+AO5C+O4AC+AO5C+O4A
5:C+AO5C+O4AC+AO5C+O4AC+F+AO5C+F+C+O4AF+
5:DGBGDGBGDGBGDGBG
5:DGBGDGBGDGBO5DGDO4BG
5:EAO5C+O4AEAO5C+O4AEAO5C+O4AEAO5C+O4A
5:C+EAO5C+O4AO5C+EAO6C+O5AEC+C+O4AEC+
5:O3BO4GBGO3BO4GBGO3BO4GBGO3BO4GBG
5:C+AO5C+O4AC+AO5C+O4AC+AO5C+O4AC+AO5C+O4A
5:DAO5DO4ADAO5DO4AC+F+AO5C+F+C+O4AF+
5:O3BO4F+BF+O3BO4F+BF+O3BO4F+BF+O3BO4C+DF+
5:DGBGDGBGDGBGO5DO4BGD
5:O3AO4AO5C+O4AO3AO4AO5C+O4AO3AO4AO5C+O4AC+DEA
5:DAO5DO4ADAO5DO4ADAO5DO4AC+EAO5C+
5:DO4AF+AO5DO4AF+DF+DO3BF+O4DO3BO4DF+
5:BGDGBGDGBGDGBGDG
5:AEC+EAEC+EAEC+EAEC+A
5:AF+DF+AF+DF+AF+DF+AF+DF+
5:AF+DF+O3ABO4C+F+AF+DF+F+DEF+
5:BGDGBGDGBGDGBGDG
5:O5C+O4AEAO5C+O4AEAO5C+O4AEAO5C+O4ABO5C+
5:DO4AF+AO5DO4AO5DF+EO4AO5C+EEO4AO5C+E
5:F+O4F+AO5DO4DF+AO5DF+DO4AF+AF+GA
5:BGDGBGDGBGDGBGDG
5:AEC+EAEC+EAEC+EAEF+A
5:BF+DF+BF+DF+BF+DF+DF+AB
5:AF+DF+AF+DF+AF+DF+AF+GA
5:BGDGBGDGBGDGBGDG
5:BG+EG+BG+EG+BG+EG+BG+BO5D
5:C+O4AEAO5C+O4AEAO5C+O4AEAO5C+O4AEA
5:O5C+O4AEAO5C+O4AEAO3ABO4C+EABO5C+A
5:O4DAO5DO4ADAO5DO4ADAO5DO4ADAO5DO4A
5:O3BO4F+BF+O3BO4F+BF+O3BO4F+BF+O3BO4F+BF+
5:O3GO4DGDO3GO4DGDO3GO4DGDO3G+O4DG+D
5:O3AO4EAEO3AO4EAEO3AO4EAEO3ABO4C+A
5:DAO5DO4ADAO5DO4ADAO5DO4ADAO5DO4A
5:O3BO4F+BF+O3BO4F+BF+O3BO4F+BF+O3BO4F+BF+
5:O3GO4DGDO3GO4DGDO3GO4DGDO3G+O4DG+D
5:O3AO4EAEO3AO4EAEO3AO4EAEO3AO4EAO5C+

6:R1


SSGENV:@1,15,15,15,14,14,14,15,14,15,14,15,14,14,13,12,13,12,13,12,13,12,13,12
->12,11,12,11,12,11,12,11,12,11,11,10,11,10,11,10,11,10,11,10,11,10,11,10,11,10
->10,9,10,9,10,9,10,9,10,9,10
SOUND:@1
LFO:0,0,0,2,7
OP1:10,7,0,6,15,33,3,3,3,0
OP2:10,10,0,6,12,36,1,6,1,0
OP3:13,5,0,6,13,34,1,1,3,0
OP4:15,6,0,6,2,0,1,1,0,0

SOUND:@2
LFO:0,0,0,1,6
OP1:31,7,0,8,15,25,0,2,3,0
OP2:31,13,0,8,7,29,1,2,1,0
OP3:31,4,0,8,5,25,1,0,1,0
OP4:26,8,0,8,15,0,1,0,0,0

SOUND:@3
LFO:0,0,0,3,7
OP1:30,15,0,12,1,0,0,9,0,0
OP2:30,15,0,12,8,25,0,3,2,0
OP3:30,17,0,12,10,25,0,1,0,0
OP4:26,16,0,12,15,0,0,0,0,0
